src/shared/svg/sidebar/Heart.svg

<svg width="20" height="20" viewBox="0 0 20 20" fill="none" xmlns="http://www.w3.org/2000/svg">
<path d="M9.53125 3.28125L9.96484 3.75001L10.4336 3.28204C11.7422 2.00665 13.5547 1.42618 15.3359 1.72266C18.0273 2.1711 20 4.50001 20 7.23047V7.45704C20 9.07813 19.3281 10.6289 18.1406 11.7344L11.082 18.3242C10.7891 18.5977 10.4023 18.75 10 18.75C9.59766 18.75 9.21094 18.5977 8.91797 18.3242L1.85898 11.7344C0.673047 10.6289 0 9.07813 0 7.45704V7.23047C0 4.50001 1.97344 2.1711 4.66406 1.72266C6.41016 1.42618 8.25781 2.00665 9.53125 3.28125C9.49609 3.28125 9.53125 3.28165 9.53125 3.28125ZM9.96484 6.40235L8.20703 4.57422C7.35938 3.76094 6.15625 3.37501 4.97266 3.57188C3.18555 3.86993 1.875 5.41797 1.875 7.23047V7.45704C1.875 8.5586 2.33242 9.61329 3.13828 10.3633L10 16.7695L16.8633 10.3633C17.668 9.61329 18.125 8.5586 18.125 7.45704V7.23047C18.125 5.41797 16.8125 3.86993 15.0273 3.57188C13.8438 3.37501 12.6406 3.76094 11.793 4.57422L9.96484 6.40235Z" fill="#8A8DBA"/>
</svg>

<svg width="20" height="20" viewBox="0 0 20 20" fill="none" xmlns="http://www.w3.org/2000/svg"><path d="m9.531 3.281.434.469.469-.468a5.683 5.683 0 0 1 4.902-1.56A5.582 5.582 0 0 1 20 7.23v.227a5.844 5.844 0 0 1-1.86 4.277l-7.058 6.59a1.585 1.585 0 0 1-2.164 0l-7.059-6.59A5.85 5.85 0 0 1 0 7.457V7.23a5.582 5.582 0 0 1 4.664-5.507A5.615 5.615 0 0 1 9.531 3.28c-.035 0 0 0 0 0Zm.434 3.121L8.207 4.574a3.79 3.79 0 0 0-3.234-1.002A3.71 3.71 0 0 0 1.875 7.23v.227a3.97 3.97 0 0 0 1.263 2.906L10 16.77l6.863-6.407a3.975 3.975 0 0 0 1.262-2.906V7.23a3.711 3.711 0 0 0-3.098-3.658 3.79 3.79 0 0 0-3.234 1.002L9.965 6.402Z" fill="#8A8DBA"/></svg>
